X:820
T: Tickle the Pig
C: BB
R: jig
Q: 1/8=320
M: 6/8
L: 1/8
K: Dmix
E | "D"D2 F A2 F | "C"GcB c2 B | "D"Add "A"^cde | "D"fdA "C"cGE |
"D"D2 F A2 F | "C"GcB cde | "D"dcA "Am"GEC | "G"DED "D"D2 :|
A|"D"Add afd | "Am"Ace "C"gfg | "D"f2 a "G"gfe | "D"d2 e "Am"cBA |
"D"Add afd | "Am"Ace "C"gfe | "D"d^cA "Am"GEC |"G"DED "D"D2 :|

%%%%%%%%%%%%%%%%%%%%%%%%%%%%%%%%%%%%%%%%%%%

